svgs/sharp-regular/oil-can-drip.svg

<svg xmlns="http://www.w3.org/2000/svg" viewBox="0 0 640 512"><!--! Font Awesome Pro 6.6.0 by @fontawesome - https://fontawesome.com License - https://fontawesome.com/license (Commercial License) Copyright 2024 Fonticons, Inc. --><path d="M352 112l-72 0 0 48 104 0 64 32 155.3-31.1 2.6-.5 2-.4 32 32L432 416l-48 0-240 0-48 0 0-48 0-21.3L0 304l0-96 0-48 48 0 48 0 48 0 88 0 0-48-72 0 0-48 192 0 0 48zM96 208l-48 0 0 64.8 48 21.3L96 208zm345.3 34.3l-14.7-7.4L372.7 208 144 208l0 107.5 0 52.5 240 0 27.1 0L547.5 221l-90.1 18-16.2 3.2zM592 448c-26.5 0-48-21.5-48-48c0-32 48-96 48-96s48 64 48 96s-21.5 48-48 48z"/></svg>

<svg xmlns="http://www.w3.org/2000/svg" viewBox="0 0 640 512"><!--! Font Awesome Pro 6.4.0 by @fontawesome - https://fontawesome.com License - https://fontawesome.com/license (Commercial License) Copyright 2023 Fonticons, Inc. --><path d="M352 112H280v48H384l64 32 155.3-31.1 2.6-.5 2-.4 32 32L432 416H384 144 96V368 346.7L0 304V208 160H48 96h48 88V112H160V64H352v48zM96 208H48v64.8l48 21.3V208zm345.3 34.3l-14.7-7.4L372.7 208H144V315.5 368H384h27.1L547.5 221l-90.1 18-16.2 3.2zM592 448c-26.5 0-48-21.5-48-48c0-32 48-96 48-96s48 64 48 96s-21.5 48-48 48z"/></svg>
